X:1
T:Arabesque No. 1
T:Arabesque No. 1
T:Premiere Arabesque des Deux Arabesques
T:C. Debussy
T:Arr. Miguel Bandelaria
T:CC Zero
T:CC Zero
T:CC Zero
T:CC Zero
T:CC Zero
T:CC Zero
C:C. Debussy
Z:Arr. Miguel Bandelaria
Z:CC Zero
%%score { ( 1 3 5 ) | ( 2 4 ) }
L:1/8
M:4/4
K:E
V:1 treble nm="Piano" snm="Pno."
V:3 treble 
V:5 treble 
V:2 treble 
V:4 treble 
V:1
 z2 (3cef (3gdB z2 | z2 (3Acd (3eBG z2 | z2 c2 f2 c2- | c2 c2 f2 a2- | %4
[Q:1/4=120] a2 a4- (3ag[Q:1/4=65]f[Q:1/4=100][Q:1/4=80] |[Q:1/4=120] z2 (3efc (3eBc (3GBF | %6
 (3GEG D4 C2 | B, z (3efc (3eBc (3GBF | (3GEG D4 C2 | (3B,A,B, C2- CEDE | C2 G4 E2 | %11
 (3DCD E2- EGFG | E2 c4 (3^AcA | G2 e4 (3cec | g3 f[Q:1/4=100] g3 f | %15
[Q:1/4=80] g3 f[Q:1/4=70] g f2[Q:1/4=50] g |[Q:1/4=120] z2 (3cef (3gdB z2 | z2 (3Acd (3eBG z2 | %18
 d4 e2 gb | d4- dceg | B4- BAce | G4 (3z Ac (3egf | d2 G2 z FAc | E4 (3z FA (3ce=d | G2 F4 =D2 | %25
[K:bass] C8- | C2 C2 E2 C2 |[K:treble] F8- | F2 F2 A2 F2 | B2 G2 B2 G2 | [Ac]8- | %31
 [Ac]2 [FA]2 [GB]2 [Ac]2 | [Ac]8- | [Ac]2 A2 B2 c2 | d2 e2 f2 g2 | a2 b2 c'2 d'2 | f'4 d'4 | e8- || %38
[K:A][Q:1/4=110] (3ede c2- cBBc | A2 F4 G2 | FE f4 e2 | FE g2- gbaf | (3ede c2- cBBc | %43
 A2 F2- FFFG | (3FEB, C4 [CE]2 | [B,E]6 z2 |[K:bass][Q:1/4=148] (3D,F,A, (3CB,A, (3G,B,D (3FED | %47
[K:treble][Q:1/4=150] (3CEG (3BAG (3FAc (3edc |[Q:1/4=110] (3Bdf!f! a2- agfe | %49
 fedc[Q:1/4=90] d[Q:1/4=70]c[Q:1/4=60]B[Q:1/4=50]A | %50
[K:bass][Q:1/4=150] (3D,F,A, (3CB,A, (3G,B,D (3FED |[K:treble] (3CEG (3BAG (3FAc (3edc | %52
[Q:1/4=110] (3Bdf a2- agfg | (3Bdf a2- agfg | (3ede c2- cBBc | A2 F4 G2 | FE f4 e2 | FE g2- gbaf | %58
 (3ede c2- cBBc | A2 G2- GFFG | (3FEB, [A,C]4 [A,CE]2 | [B,E]6 z2 | (3=G=FG [A,=CE]4 D2 | %63
 =C2 =G,4 C2 | D2 [=C=F]2 [C=G]2 A=c | [Bd]4 =G4 |[K:C] (3gfg e4 d2 | e4 f4 | (3gfg e4 g2 | %69
[Q:1/4=90] (3^g^fg e4 g2 ||[K:E][Q:1/4=120] z2 (3cef (3gdB z2 | z2 (3Acd (3eBG z2 | z2 c2 f2 c2- | %73
 c2 c2 f2 a2- |[Q:1/4=110] a2[Q:1/4=80] a4- (3a[Q:1/4=50]gf[Q:1/4=75][Q:1/4=65] | %75
[Q:1/4=120] z2 (3efc (3eBc (3GBF | (3GEG D4 C2 | B, z (3efc (3eBc (3GBF | (3GEG D4 C2 | %79
 (3B,A,B, C2- CEDE | C2 G4 E2 | (3DCD E2- EGFG | E2 c4 (3^AcA | G2 e4 (3cec | %84
 g3 f[Q:1/4=110] g3 f |[Q:1/4=90] g3[Q:1/4=80] f[Q:1/4=70] g[Q:1/4=50] f2[Q:1/4=40] g | %86
[Q:1/4=120] z2 (3cef (3gdB z2 | z2 (3Acd (3eBG z2 | a2 bc' agag- | g2 f2- f2 e2- | e=def dcdc- | %91
 c2 B4 A2- | AGAG cA F2- |[M:2/4] FE FE x2/3 |[M:4/4] A8 | (3abc' (3e'c'b (3aec (3BAE | G8 | F8 | %98
 E2 (3e'f'c' (3e'bc' (3gbf | (3geg d4 c2 | B2 (3efc (3eBc (3GBF | (3GEG D4 C2 | %102
 (3z B, z (3z C z (3z E z (3z FC | (3z BE (3z cG (3z eB (3z fc | (3z be (3z c'g (3z e'b (3z f'c' | %105
 [e'g']2 [e'g']4 [e'g']2 | E2 z2 z2 z2 |] %107
V:2
 (3(CEA z2 z2 (3GDB,) | (3(A,CF z2 z2 (3EB,G,) |[K:bass] (3F,A,C- C2 (3E,A,C- C2 | %3
 (3D,A,C- C2 (3C,A,E- E2 | (3C,F,A, (3C[K:treble]DF (3Acd (3cBA |[K:bass] E,,B,,E,G, B,G,E,B,, | %6
 E,,C,E,G, CG,E,C, | E,,B,,E,G, B,G,E,B,, | E,,C,E,G, CG,E,C, | F,,C,E,F, A,F,E,C, | %10
 G,,C,E,G, B,G,E,C, | A,,E,F,A, CA,F,E, | ^A,,E,G,C C,F,^A,E | E,^A,CG F,CE[K:treble]^A | %14
 ^A,EGc CF^Ae | ^A,EGc CF^Ae | (3(CEA z2 z2 (3GDB,) | (3(A,CF z2 z2 (3EB,G,) | %18
 (3^^F,CD (3^ADC (3G,CE (3BEC | (3^^F,CD (3^ADC[K:bass] (3E,A,C (3ECA, | %20
 (3D,A,B, (3FB,A, (3C,F,A, (3EA,F, | (3=C,F,G, (3DG,F, (3^C,F,A, (3EA,F, | %22
 (3=C,F,G, (3DG,F, (3B,,F,A, (3=DA,F, | (3B,,E,G, (3=DG,E, (3B,,F,A, (3DA,F, | %24
 (3B,,E,G, (3=DG,E, (3E,,B,,E, (3F,G,B, | (3A,,,A,,A,,- A,,4- A,,-A,,- | A,,8 | =D,,A,, F,6 | %28
 B,,,B,,F,A, B,2 z2 | G,,,G,,E,G, B,2 z2 | (3F,,,F,,C, (3E,F,A, (3C-C-C- C-C | z4 D2 C2 | %32
 (3F,,,F,,C, (3E,F,A, (3C-C-C- C-C | z4 F,4 | B,,2 F,2 A,2 B,2 | D2[K:treble] F2 A2 B2 | %36
[K:bass] E,,,E,,B,,E, G,B,EG | z4 E4 ||[K:A] F6 D2 | [F,C]2 [B,,A,]6 | [E,,B,,]2 F4 E2 | %41
 [A,,E,]2 [E,A,CE]6 | F6 =F2 | [F,C]2 [B,,A,]4 [A,,^D,]2 | [G,,E,]2 [F,,E,]4 [B,,,B,,]2 | %45
 [E,,B,,]4 E,,2 E,2 | z2 F,,4 E,,2 | z2 [A,,,B,,]4 [D,,D,]2 | z2 [B,,,B,,]2 [F,B,DF]2 [E,,E,]2 | %49
 [A,,,A,,]2 E,2 FEDC | z2 F,,4 E,,2 | z2 [A,,,B,,]4 [D,,D,]2 | z2 [B,,,B,,] z [F,B,DF]4 | %53
 z2 [B,,,B,,] z [F,B,DF]4 | D8 | [A,C]4 [B,,A,]4 | B,,2 F4 E2 | [A,,E,]2 [E,A,CE]6 | F6 =F2 | %59
 [F,C]4 [B,,A,]2 [A,,^D,]2 | [G,,E,]2 [F,,E,]4 [B,,,B,,]2 | [E,,B,,]4 E,,2 E,2 | %62
 [E,,=C,]2 [=F,,C,]4 [=F,B,]2 | [E,A,]2 [D,=F,]4 [E,A,]2 | [=F,B,]2 A,2 =G,2 z2 | %65
 =G,,,=G,,D,=F, =G,B,D=F |[K:C][K:treble] [EG]4 [FA]4 | [G_B]4 [FA]4 | G8 | ^G8 || %70
[K:E] (3(CEA z2 z2 (3GDB,) | (3(A,CF z2 z2 (3EB,G,) |[K:bass] (3F,A,C- C2 (3E,A,C- C2 | %73
 (3D,A,C- C2 (3C,A,E- E2 | (3C,F,A, (3C[K:treble]DF (3Acd (3cBA |[K:bass] E,,B,,E,G, B,G,E,B,, | %76
 E,,C,E,G, CG,E,C, | E,,B,,E,G, B,G,E,B,, | E,,C,E,G, CG,E,C, | F,,C,E,F, A,F,E,C, | %80
 G,,C,E,G, B,G,E,C, | A,,E,F,A, CA,F,E, | ^A,,E,G,C C,F,^A,E | E,^A,CG F,CE[K:treble]^A | %84
 ^A,EGc CF^Ae | ^A,EGc CF^Ae | (3(CEA z2 z2 (3GDB,) | (3(A,CF z2 z2 (3EB,G,) | %88
 (3CEA (3cAE (3B,DG (3BGD | (3A,CF (3AFC (3G,B,E (3GEB, |[K:bass] (3F,A,=D (3FDA, (3E,G,C (3ECG, | %91
 (3=D,F,B, (3=DB,F, (3C,E,A, (3CA,E, | (3B,,^E,G, (3B,G,E, (3A,,C,F, (3A,F,C, | %93
[M:2/4] z2/3 B,,E,(3G,E, B,, |[M:4/4] (3F,,C,E, (3F,A,B, (3C-C-C- C2 | z8 | %96
 (3B,,,G,,B,, (3G,B,-B,- B,4 | (3B,,,B,,D, (3A,B,-B,- B,4 | E,,B,,E,G, B,G,E,B,, | %99
 E,,C,E,G, CG,E,C, | E,,B,,E,G, B,G,E,B,, | E,,C,E,G, CG,E,C, | %102
 (3z z E, (3z z G, (3z z B, (3z z z | E,2 B,2 E2 G2 |[K:treble] E2 B2 e2 g2 | [eb]2 [eb]4 [eb]2 | %106
[K:bass] [E,,E,]2 z2 z2 z2 |] %107
V:3
 x8 | x8 | z2 (3cFA- A2 (3cFA- | A2 (3cFA- A2 (3aAc | x8 | x8 | x8 | x8 | x8 | x8 | x8 | x8 | x8 | %13
 x8 | x8 | x8 | a4 g4 | f4 e4 | x8 | x8 | x8 | x8 | x8 | x8 | x8 | %25
[K:bass] (3z z E, (3=G,A,B, (3A,E,G, (3A,B,A, | =G,8 |[K:treble] x2 (3A,B,C (3B,A,B, (3CB,A, | %28
 C4 D4- | D4 E4 | z4 (3z EF (3AGF | E4 z4 | z4 (3z EF (3AGF | E2 (3FCE (3GDF (3AEG | %34
 (3BFA (3cGB (3dAc (3eBd | (3fce (3gdf (3aeg (3bfa | [gb]8 | x8 ||[K:A] A6 G2 | F2 ^D6 | %40
 [G,D]2 [Bd]6 | [A,C]2 [Ac]6 | A6 G2 | E4 ^D2 C2 | B,2 A,4 A,2 | A,2 G,4 z2 |[K:bass] x8 | %47
[K:treble] x8 | z4 [Bd]2 [Gd]2 | [Ac]4 A4 |[K:bass] x8 |[K:treble] x8 | z4 [Bd]4 | z4 [Bd]4 | %54
 G4 F2 =F2 | E4 ^D4 | [G,D]2 [Bd]6 | [A,C]2 [Ac]6 | A6 G2 | E4 ^D2 C2 | B,2 z6 | A,2 G,4 z2 | %62
 [=G,=C]2 [A,CE]4 D2 | x8 | x6 [=C=F]2 | =F8 |[K:C] c8- | c8 | c8- | c4 ^c4 ||[K:E] x8 | x8 | %72
 z2 (3cFA- A2 (3cFA- | A2 (3cFA- A2 (3aAc | x8 | x8 | x8 | x8 | x8 | x8 | x8 | x8 | x8 | x8 | x8 | %85
 x8 | a4 g4 | f4 e4 | z2 e2 z2 d2 | c4 B4 | z2 A2 z2 G2 | F4 x4 | =D4 C4 |[M:2/4] x14/3 | %94
[M:4/4] x4 (3x EA (3Bce | x8 | x2 (3:2:2x2 D (3GBd (3gbB | x2 (3:2:2x2 D (3ABd (3abB | x8 | x8 | %100
 x8 | x8 | x8 | x8 | x8 | x8 | x8 |] %107
V:4
 x8 | x8 |[K:bass] F,4 E,4 | D,4 C,4 | x8/3[K:treble] x16/3 |[K:bass] x8 | x8 | x8 | x8 | x8 | x8 | %11
 x8 | x8 | x7[K:treble] x | x8 | x8 | x8 | x8 | x8 | x4[K:bass] x4 | x8 | x8 | x8 | x8 | x8 | x8 | %26
 x8 | x8 | x8 | x8 | x8 | x8 | x8 | x8 | x8 | x2[K:treble] x6 |[K:bass] x8 | x8 || %38
[K:A] B,C D4 E,2 | x8 | [E,,B,,]2 [G,D]6 | x8 | B,C D6 | x8 | x8 | x8 | x8 | x8 | x8 | x8 | x8 | %51
 x8 | x8 | x8 | E,4 F,2 G,2 | x8 | E,,2 [G,D]6 | x8 | B,C D6 | x8 | x8 | x8 | z6 =G,,2 | %63
 A,,2 B,,4 A,,2 | =G,,2 =F,,2 E,,2 [D,,D,]2 | x8 |[K:C][K:treble] x8 | x8 | E8- | E6- E^D || %70
[K:E] x8 | x8 |[K:bass] F,4 E,4 | D,4 C,4 | x8/3[K:treble] x16/3 |[K:bass] x8 | x8 | x8 | x8 | x8 | %80
 x8 | x8 | x8 | x7[K:treble] x | x8 | x8 | x8 | x8 | C4 B,4 | x8 |[K:bass] F,4 E,4 | =D,4 C,4 | %92
 B,,4 A,,4 |[M:2/4] G,,4 x2/3 |[M:4/4] x8 | x8 | x8 | x8 | x8 | x8 | x8 | x8 | E,,2 B,,2 E,2 G,2 | %103
 x8 |[K:treble] x8 | x8 |[K:bass] x8 |] %107
V:5
 x8 | x8 | x8 | x8 | x8 | x8 | x8 | x8 | x8 | x8 | x8 | x8 | x8 | x8 | x8 | x8 | x8 | x8 | x8 | %19
 x8 | x8 | x8 | x8 | x8 | x8 |[K:bass] x8 | x8 |[K:treble] x8 | x8 | x8 | x8 | x8 | x8 | x8 | x8 | %35
 x8 | x8 | x8 ||[K:A] x8 | x8 | x8 | x8 | x8 | x8 | x8 | x8 |[K:bass] x8 |[K:treble] x8 | x8 | x8 | %50
[K:bass] x8 |[K:treble] x8 | x8 | x8 | x8 | x8 | x8 | x8 | x8 | x8 | x8 | x8 | x8 | x8 | x8 | x8 | %66
[K:C] x8 | x8 | x8 | x8 ||[K:E] x8 | x8 | x8 | x8 | x8 | x8 | x8 | x8 | x8 | x8 | x8 | x8 | x8 | %83
 x8 | x8 | x8 | x8 | x8 | x8 | x8 | x8 | x8 | x8 |[M:2/4] x14/3 |[M:4/4] A8 | x8 | x8 | x8 | x8 | %99
 x8 | x8 | x8 | x8 | x8 | x8 | x8 | x8 |] %107

